X:141
T: Der sterbende Jngling (2-29), S. 75f
N: K1115
O: Luxemburg
S: KINTZELE, Guillaume: An der Ucht, Bd. 2, Luxemburg 1927]
N: in der Quelle mit einer 2. Stimme versehen
R: Abschied?]
M: 4/4
L: 1/16
K: C
G3F | E6E2E2E2A2G2 | G2F2F4z4
F3E | D6D2D2D2G2F2 | E8z4
G3G | G6E2E2G2A3G | G2F2F4z4
F3E | D6D2D2D2G3F | E8z4
c3c | B6B2c2B2A2G2 | G2c2c4z4
c3c | B6A2G2G2A2G2 | E8z4
G3G | G6E2E2E2A2G2 | G2F2F4z4
F3E | D6D2D2D2G2F2 | F4E4z4
G3G | c6c2c2d2e2c2 | B4A4z4
c2B2A2 | G6G2B2A2G2F2 | E8z4
G3G | c6c2c2d2e2c2 | B4A4z4
c2B2A2 | G6G2B2A2G2F2 | E8z4

